X:1
T:Title
L:1/8
Q:1/4=120
M:6/8
K:Eb
V:1 treble nm="Church Organ, Staff"
V:1
 G2 G F2 F | G2 A B3 | c2 c A2 c | B3 B3 | G2 G F2 F | G2 A B3 | =A2 B c2 d | B3 B3 | d2 c B2 c | %9
w: By~C.~Simper * * *|||||||||
 d2 c B3 | B2 e B2 G | B2 G F3 | G2 G G2 c | B2 =A d3 | c2 B =ABc |[M:3/8] G2 _G |[M:6/8] G3 B3 | %17
w: ||||||||
 B2 G GBe | d3 c3 | B2 B A2 G | F3 F3 | FGF E2 F | G2 A B3 | GAG F2 G | A2 B c3 | cde B2 A | %26
w: |||||||||
 G3 G3 | FGA G3 | G3 F3 | E3 E3 |] %30
w: ||||

